X:1
T:North Coates, 65.65
T:North Coates, 65.65
T:Timothy Richard Matthews, 1862
T:Public Domain Courtesy of the Cyber Hymnal™
C:Timothy Richard Matthews, 1862
Z:Public Domain
Z:Courtesy of the Cyber Hymnal™
%%score ( 1 2 ) ( 3 4 )
L:1/8
Q:1/4=115
M:4/4
K:G
V:1 treble 
V:2 treble 
V:3 bass 
V:4 bass 
V:1
 [B,D]2 [B,D]2 [CE]2 E2 | [DG]4 [DG]4 | [DF]2 [DF]2 [^CG]2 [CE]2 | D8 | [DG]2 [DG]2 [GB]2 [GB]2 | %5
 [Fd]4 [Gd]4 | [GB]2 [GB]2 [Ec]2 [FA]2 | G8 |] %8
V:2
 x6 E2 | x8 | x8 | D8 | x8 | x8 | x8 | G8 |] %8
V:3
 [G,,G,]2 [G,,G,]2 [C,G,]2 [C,C]2 | [G,,C]4 [G,,B,]4 | [A,,A,]2 [A,,A,]2 [A,,A,]2 [A,,G,]2 | %3
 [D,F,]8 | [G,B,]2 [G,B,]2 [G,D]2 [G,D]2 | [A,C]4 B,4 | [G,D]2 [G,D]2 [C,C]2 [D,C]2 | [G,,B,]8 |] %8
V:4
 x8 | x8 | x8 | x8 | x8 | x4 B,4 | x8 | x8 |] %8

